src/img/HomePage/Crystals/UpRight2.svg

<?xml version="1.0" encoding="UTF-8"?> <svg xmlns="http://www.w3.org/2000/svg" width="123" height="138" viewBox="0 0 123 138" fill="none"> <path d="M9.24998 66.6208C8.58612 68.7316 2.05127 71.5826 0.416682 70.4737C0.000426094 70.1913 0.586491 69.3416 1.71942 68.5839C19.1414 56.9481 43.8291 36.3705 54.839 24.3074C60.9752 17.5851 61.1419 17.5078 75.5707 14.5981C83.5712 12.9855 97.0202 9.19237 105.458 6.16795C113.895 3.14462 121.375 0.730097 122.077 0.800986C122.78 0.873698 122.797 3.40649 122.115 6.43061C121.433 9.45472 121.077 12.4448 121.325 13.0758C121.573 13.7068 114.966 19.6837 106.642 26.3561C91.8721 38.198 84.6338 45.195 73.8022 58.1065L68.4768 64.4546L60.9733 63.4724C48.6962 61.8653 29.4325 62.706 19.1104 65.2985C13.7972 66.6341 9.87779 67.0943 10.4013 66.3226C13.1198 62.3154 44.5632 59.6668 62.5778 61.9283C68.0569 62.615 68.6344 62.3601 71.6466 57.9199C76.5018 50.7629 88.9964 38.6403 104.479 26.0644C119.781 13.6343 120.134 13.2882 118.06 12.7043C116.229 12.1876 100.118 24.0889 89.7577 33.6113L81.8218 40.9067L87.9147 33.1534C91.361 28.7682 96.3395 23.9677 99.3759 22.1002C103.117 19.7996 105.348 17.4746 106.745 14.4199C108.114 11.4251 109.732 9.70748 111.864 8.98578C113.578 8.40529 115.819 6.7284 116.842 5.2594C118.538 2.82782 118.18 2.79782 112.84 4.92188C96.4522 11.4426 76.9482 17.0192 67.5044 17.8841C63.1507 18.2826 61.662 19.3426 54.8885 26.8592C50.6641 31.547 40.8043 40.5487 32.9773 46.8625C25.1503 53.1762 18.1339 58.997 17.3862 59.7973C16.6386 60.5976 14.6601 61.956 12.9896 62.8182C11.32 63.6793 9.63709 65.3904 9.24998 66.6208Z" fill="#FA007A"></path> <path d="M32.4153 57.6307C29.3617 58.4358 24.5485 59.6637 21.7174 60.3582C18.8091 61.0732 17.6977 61.0086 19.1619 60.2094C20.5859 59.432 25.5853 57.8313 30.2718 56.6521C37.4907 54.8374 38.8572 54.8911 39.2099 57.0053C39.4909 58.6825 39.3553 58.9549 38.7975 57.8332C38.3013 56.8357 35.7331 56.7545 32.4153 57.6307Z" fill="#FA007A"></path> <path d="M54.4984 58.0308C49.1985 57.9221 44.5313 57.6086 44.1259 57.3335C43.1477 56.67 49.8822 56.3366 56.7877 56.7056C66.3538 57.2185 64.5925 58.2378 54.4984 58.0308Z" fill="#FA007A"></path> <path d="M78.8209 42.9091C82.2532 40.2357 74.5815 49.3032 69.4906 53.9373C66.9757 56.2267 67.4055 55.4295 71.0243 51.0917C73.7886 47.7796 77.2962 44.0968 78.8209 42.9091Z" fill="#FA007A"></path> <path d="M94.5907 125.889C96.8796 137.791 84.8287 142.462 81.1087 131.113C80.1176 128.092 84.2695 122.978 88.346 122.2C92.7781 121.353 93.8388 121.98 94.5907 125.889Z" fill="#FA007A"></path> </svg>

<svg xmlns="http://www.w3.org/2000/svg" width="123" height="138" fill="none"><path d="M9.25 66.62c-.664 2.112-7.199 4.963-8.833 3.854-.417-.283.17-1.132 1.302-1.89C19.141 56.948 43.83 36.37 54.84 24.307c6.136-6.722 6.303-6.8 20.732-9.709 8-1.613 21.45-5.406 29.887-8.43C113.895 3.145 121.375.73 122.077.8c.703.073.72 2.605.038 5.63-.682 3.024-1.038 6.014-.79 6.645.248.63-6.359 6.608-14.683 13.28-14.77 11.842-22.008 18.839-32.84 31.75l-5.325 6.349-7.504-.983c-12.277-1.607-31.54-.766-41.863 1.827-5.313 1.335-9.232 1.795-8.709 1.024 2.719-4.008 34.162-6.656 52.177-4.395 5.479.687 6.056.432 9.069-4.008 4.855-7.157 17.35-19.28 32.832-31.856 15.302-12.43 15.655-12.776 13.581-13.36-1.831-.516-17.942 11.385-28.302 20.907l-7.936 7.296 6.093-7.754c3.446-4.385 8.424-9.185 11.46-11.053 3.742-2.3 5.973-4.625 7.37-7.68 1.369-2.995 2.987-4.713 5.119-5.434 1.714-.58 3.955-2.258 4.978-3.727 1.696-2.431 1.338-2.461-4.002-.337-16.388 6.52-35.892 12.097-45.336 12.962-4.353.399-5.842 1.459-12.616 8.975-4.224 4.688-14.084 13.69-21.91 20.003-7.828 6.314-14.844 12.135-15.592 12.935-.747.8-2.726 2.159-4.396 3.021-1.67.861-3.353 2.572-3.74 3.803Z" fill="#FA007A"/><path d="M32.415 57.63a778.08 778.08 0 0 1-10.698 2.728c-2.908.715-4.02.65-2.555-.149 1.424-.777 6.423-2.378 11.11-3.557 7.219-1.815 8.585-1.76 8.938.353.28 1.677.145 1.95-.413.828-.496-.997-3.064-1.078-6.382-.202ZM54.498 58.03c-5.3-.108-9.967-.421-10.372-.697-.978-.663 5.756-.996 12.662-.627 9.566.512 7.805 1.532-2.29 1.325ZM78.82 42.91c3.433-2.674-4.238 6.393-9.33 11.027-2.514 2.29-2.084 1.492 1.534-2.845 2.765-3.312 6.272-6.995 7.797-8.183ZM94.59 125.889c2.29 11.902-9.761 16.573-13.481 5.224-.991-3.021 3.16-8.135 7.237-8.913 4.432-.847 5.493-.22 6.245 3.689Z" fill="#FA007A"/></svg>
